www/images/home.svg

<svg fill="none" height="75" viewBox="0 0 75 75" width="75" xmlns="http://www.w3.org/2000/svg"><path d="m59.5358 30.219c0-1.6569-1.3432-3-3-3-1.6569 0-3 1.3431-3 3zm-3 32.781v3c1.6568 0 3-1.3431 3-3zm-37.4767 0h-3c0 1.6569 1.3432 3 3 3zm3-32.781c0-1.6569-1.3431-3-3-3-1.6568 0-3 1.3431-3 3zm15.4409-19.219 2.1299-2.11272c-.5633-.56787-1.33-.88728-2.1299-.88728s-1.5666.31941-2.1299.88728zm24.3701 28.8279c1.1668 1.1763 3.0663 1.184 4.2426.0172s1.184-3.0663.0172-4.2426zm-52.99998-4.2254c-1.16683 1.1763-1.15915 3.0758.01716 4.2426 1.17632 1.1668 3.07582 1.1591 4.24262-.0172zm34.82198 6.5833c0 3.3342-2.6747 5.9955-5.9231 5.9955v6c6.6078 0 11.9231-5.3935 11.9231-11.9955zm-5.9231 5.9955c-3.2483 0-5.923-2.6613-5.923-5.9955h-6c0 6.602 5.3153 11.9955 11.923 11.9955zm-5.923-5.9955c0-3.3341 2.6747-5.9954 5.923-5.9954v-6c-6.6077 0-11.923 5.3934-11.923 11.9954zm5.923-5.9954c3.2484 0 5.9231 2.6613 5.9231 5.9954h6c0-6.602-5.3153-11.9954-11.9231-11.9954zm15.7668-5.9714v32.781h6v-32.781zm3 29.781h-37.4767v6h37.4767zm-34.4767 3v-32.781h-6v32.781zm13.311-49.8873 26.5 26.7152 4.2598-4.2254-26.5-26.71522zm-22.2402 26.7152 26.5-26.7152-4.2598-4.22542-26.49998 26.71522z" fill="#fff"/></svg>

<svg width="75" height="75" viewBox="0 0 75 75" fill="none" xmlns="http://www.w3.org/2000/svg">
<path d="M59.5358 30.219C59.5358 28.5621 58.1926 27.219 56.5358 27.219C54.8789 27.219 53.5358 28.5621 53.5358 30.219H59.5358ZM56.5358 63V66C58.1926 66 59.5358 64.6569 59.5358 63H56.5358ZM19.0591 63H16.0591C16.0591 64.6569 17.4023 66 19.0591 66V63ZM22.0591 30.219C22.0591 28.5621 20.716 27.219 19.0591 27.219C17.4023 27.219 16.0591 28.5621 16.0591 30.219H22.0591ZM37.5 11L39.6299 8.88728C39.0666 8.31941 38.2999 8 37.5 8C36.7001 8 35.9334 8.31941 35.3701 8.88728L37.5 11ZM61.8701 39.8279C63.0369 41.0042 64.9364 41.0119 66.1127 39.8451C67.289 38.6783 67.2967 36.7788 66.1299 35.6025L61.8701 39.8279ZM8.87012 35.6025C7.70329 36.7788 7.71097 38.6783 8.88728 39.8451C10.0636 41.0119 11.9631 41.0042 13.1299 39.8279L8.87012 35.6025ZM43.6921 42.1858C43.6921 45.52 41.0174 48.1813 37.769 48.1813V54.1813C44.3768 54.1813 49.6921 48.7878 49.6921 42.1858H43.6921ZM37.769 48.1813C34.5207 48.1813 31.846 45.52 31.846 42.1858H25.846C25.846 48.7878 31.1613 54.1813 37.769 54.1813V48.1813ZM31.846 42.1858C31.846 38.8517 34.5207 36.1904 37.769 36.1904V30.1904C31.1613 30.1904 25.846 35.5838 25.846 42.1858H31.846ZM37.769 36.1904C41.0174 36.1904 43.6921 38.8517 43.6921 42.1858H49.6921C49.6921 35.5838 44.3768 30.1904 37.769 30.1904V36.1904ZM53.5358 30.219V63H59.5358V30.219H53.5358ZM56.5358 60H19.0591V66H56.5358V60ZM22.0591 63V30.219H16.0591V63H22.0591ZM35.3701 13.1127L61.8701 39.8279L66.1299 35.6025L39.6299 8.88728L35.3701 13.1127ZM13.1299 39.8279L39.6299 13.1127L35.3701 8.88728L8.87012 35.6025L13.1299 39.8279Z" fill="white"/>
</svg>
